!!!!SEGMENT: pl-sa--l-1643--099_anonim--anna-pia-mater-ave.krn
!!!cenid: 16xx:1457
!!!COM: Anonim
!!!COM-rismID: pe30004985
!!!CDT:
!!!CNT:
!!!OTL: Anna pia mater ave
!!!PDT:
!!!AGN: Sacred
!!!SMS-siglum: PL-SA
!!!SMS-shelfmark: L 1643
!!!SMS-shelfwork: 099 W
!!!SMS-variant:
!!!SMS-altvar:
!!!NIFC-rismSourceID: 1001063201
!!!NIFC-islandoraID:
!!!URL-pdf-islandora:
!!!URL-scan:
!!!ONB-nifc: UWAGA: 8 ksiąg. Primi chori: 1mus Cantus (x), C 2dus (168-169), C 3tius (x), Bassus (x); Secondi chori: Primus Cantus (x), C 2dus (x), Altus (x), Bassus (x). UWAGA: Nie dodawać pustych linii, chyba że w rękopisie pojawiają się dodatkowe oznaczenia dotyczące pełnej obsady (a 4, a 8 itp.)
!!!AIN: 1 empty
!!!key:
**kern	**text	**text	**text	**text	**text
*group1	*	*	*	*	*
*Iempty	*	*	*	*	*
*I"Cantus 2dus Primi Chori.	*	*	*	*	*
*I'[Coro 1 C 2]	*	*	*	*	*
*clefC1	*	*	*	*	*
*k[]	*	*	*	*	*
*G:	*	*	*	*	*
*M2/1	*	*	*	*	*
*met(C|)	*	*	*	*	*
=1-	=1-	=1-	=1-	=1-	=1-
1.b	An-	A-	A-	Tu	Tu
2b\	-na	-ve	-ve	que	nos
=2-	=2-	=2-	=2-	=2-	=2-
0cc	pi-	ies-	pa-	so-	ma-
=3-	=3-	=3-	=3-	=3-	=3-
1b	-a	-se	-ren[s]	-la	-tri
1.a	ma-	ra-	stel-	me-	at
=4-	=4-	=4-	=4-	=4-	=4-
.	.	.	.	.	.
2dd\	-ter	-dix	-la	-ru-	que
1cc	a-	flo-	ma-	-i-	pro-
=5-	=5-	=5-	=5-	=5-	=5-
*M3/1	*	*	*	*	*
!LO:TX:t=P:problem=w źródle metrum 3/2	!	!	!	!	!
1b	-ve	-ris	-ris	-ſti	-li
1dd	Cu-	Quae	Quam	Es-	Re-
1dd	-ius	cae-	tu	-se	-gi
=6-	=6-	=6-	=6-	=6-	=6-
1.b	no-	.	nup-	ma-	ac
2cc\	.	-li	.	.	.
1dd	-men	st[i]s	-tam	-ter	re-
=7-	=7-	=7-	=7-	=7-	=7-
0cc	est	dat	con-	ma-	-gi-
1b	su-	o-	-tem-	-tris	-nae
=8-	=8-	=8-	=8-	=8-	=8-
0dd	-a-	-do-	-pla-	chri-	po-
1dd	-ve	-ris	-ris	-s[t]i	-li
!LO:PB:g=original	!	!	!	!	!
=9-	=9-	=9-	=9-	=9-	=9-
00.r	.	.	.	.	.
=10-	=10-	=10-	=10-	=10-	=10-
1r	.	.	.	.	.
1dd	Cu-	Quae	Quam	Es-	Re-
1b	-ius	cae-	<..>	-[s]e	-gi
=11-	=11-	=11-	=11-	=11-	=11-
0cc	no-	-le-	nup-	ma-	ac
1cc	-men	-stis	-tam	-ter	re-
=12-	=12-	=12-	=12-	=12-	=12-
0a	est	dat	con-	ma-	-gi-
1g	su-	o-	-tem-	-tris	-na
=13-	=13-	=13-	=13-	=13-	=13-
0a	-a-	-do-	-pla-	chri-	po-
1b	-ve	-ris	-ris	-ſti	-li
=14-	=14-	=14-	=14-	=14-	=14-
*M2/1	*	*	*	*	*
*met(C|)	*	*	*	*	*
2cc\	An-	pe-	Re-	Pre-	Com-
2cc\	-na	-ren-	-gis	-ces	-nen-
2cc\	so-	-nis	re-	no-	-da-
!LO:TX:t=P:problem=Pomiędzy "Comnendare" oraz "desine" w 5 zwrotce tekstu zapisane jest słowo "non" dla którego brakuje nuty	!	!	!	!	!
2cc\	-nat	fra-	-gum	-stras	-re
=15-	=15-	=15-	=15-	=15-	=15-
2.b\	gra-	-gran-	fi-	su-	de-
4b\	-ti-	-ti-	-li-	-s[c]i-	-si-
0cc;<	-am	-am	-um	-pe	-ne
!LO:TX:b:t=sol\nmi\nut	!	!	!	!	!
=-	=-	=-	=-	=-	=-
*-	*-	*-	*-	*-	*-
!!!system-decoration: [(g1)]
!!!RDF**kern: > = above
!!!RDF**kern: < = below
!!!ENC: Anastazja Marusiak
!!!END: 2021-10-29
!!!EED: Jędrzej Mróz
!!!ESR: 2021-11-03
!!!YEC: Copyright 2022 Narodowy Instytut Fryderyka Chopina (https://polishscores.org)
!!!YEM: Licence CC BY 4.0 (https://creativecommons.org/licenses/by/4.0)
